source/img/icon-close.svg

<svg enable-background="new 0 0 18 18" viewBox="0 0 18 18" xmlns="http://www.w3.org/2000/svg"><path d="m18 1.3-1.3-1.3-7.7 7.7-7.7-7.7-1.3 1.3 7.7 7.7-7.7 7.7 1.3 1.3 7.7-7.7 7.7 7.7 1.3-1.3-7.7-7.7z"/></svg>

<svg viewBox="0 0 18 18" xmlns="http://www.w3.org/2000/svg"><path d="M18 1.3L16.7 0 9 7.7 1.3 0 0 1.3 7.7 9 0 16.7 1.3 18 9 10.3l7.7 7.7 1.3-1.3L10.3 9z"/></svg>
